actions/22x22-light/insert-image.svg

<svg viewBox="0 0 22 22" xmlns="http://www.w3.org/2000/svg"><path d="m3.2851562 3c-.4487734 0-.8125.3640808-.8125.8125v14.375c0 .44882.3640417.8125.8125.8125h15.4296878c.448784 0 .8125-.364081.8125-.8125v-14.375c0-.4488199-.364031-.8125-.8125-.8125zm10.7148438 1.4003906h1.199219v2.4003906h2.40039v1.1992188h-2.40039v2.400391h-1.199219v-2.400391h-2.400391v-1.1992188h2.400391zm-5.5800781 5.2734375c.178443-.016596.3670849.0748379.5234375.2792969l3.2148436 4.205078c.312716.408951.860876.444444 1.222656.078125l.785157-.796875c.361465-.366406.894435-.322143 1.189453.099609l2.037109 2.91211c.294387.422327.116186.763672-.398437.763672h-5.994141-5.7285156c-.5145695 0-.7436998-.372402-.5117188-.832032l3.1972656-6.33789c.1158276-.2298148.2844477-.3544979.4628907-.3710939z" fill="#4d4d4d"/></svg>

<svg xmlns="http://www.w3.org/2000/svg" viewBox="0 0 22 22">
  <defs id="defs3051">
    <style type="text/css" id="current-color-scheme">
      .ColorScheme-Text {
        color:#4d4d4d
      }
      </style>
  </defs>
 <path 
     style="fill:currentColor;fill-opacity:1;stroke:none"      
	 class="ColorScheme-Text"
        d="M 3.2851562 3 C 2.8363828 3 2.4726562 3.3640808 2.4726562 3.8125 L 2.4726562 18.1875 C 2.4726562 18.63632 2.8366979 19 3.2851562 19 L 18.714844 19 C 19.163628 19 19.527344 18.635919 19.527344 18.1875 L 19.527344 3.8125 C 19.527344 3.3636801 19.163313 3 18.714844 3 L 3.2851562 3 z M 14 4.4003906 L 15.199219 4.4003906 L 15.199219 6.8007812 L 17.599609 6.8007812 L 17.599609 8 L 15.199219 8 L 15.199219 10.400391 L 14 10.400391 L 14 8 L 11.599609 8 L 11.599609 6.8007812 L 14 6.8007812 L 14 4.4003906 z M 8.4199219 9.6738281 C 8.5983649 9.6572321 8.7870068 9.748666 8.9433594 9.953125 L 12.158203 14.158203 C 12.470919 14.567154 13.019079 14.602647 13.380859 14.236328 L 14.166016 13.439453 C 14.527481 13.073047 15.060451 13.11731 15.355469 13.539062 L 17.392578 16.451172 C 17.686965 16.873499 17.508764 17.214844 16.994141 17.214844 L 11 17.214844 L 5.2714844 17.214844 C 4.7569149 17.214844 4.5277846 16.842442 4.7597656 16.382812 L 7.9570312 10.044922 C 8.0728588 9.8151072 8.2414789 9.6904241 8.4199219 9.6738281 z "
     />
</svg>
